X:17223
T:The Smoky Chimney
M:4/4
L:1/8
R:hornpipe
K:D
(3ABc|d3e fdAF|GFGA BGE2|ef (3gfe cABc|defd ADFA|
dcde fdAF|GFGA BGE2|ef (3gfe cABc|dAfe d2:|
|:de|fefg afdf|gfga bgeg|fgaf defe|(3efe  (3dcB A2Ae|
fefg afdf|gfga bgeg|afge  (3fed ec|1 Agfe d2:||2 Agfe def^g|
|:a2^g2 a3f|fe^df e2c2|B2^A2 B3^G|1 EB^GB A2 (3ef^g:||2 EB^GB A3B|
|:c2a2 c2Ac|d2b2 B3c|def^g agaf|edcB c2AB|
c2a2 c2Ac|d2b2 B3c|def^g ag (3agf|1 edcB A3B:||2  (3efe  (3dcB A4|]
